svg/fluentui-system-icons/ic_fluent_building_bank_link_28_filled.svg

<svg width="28" height="28" viewBox="0 0 28 28" fill="none" xmlns="http://www.w3.org/2000/svg">
<path d="M13.111 2.29277C13.6403 1.9024 14.3621 1.90241 14.8914 2.29279L24.3893 9.29819C25.5131 10.1271 24.9874 11.8763 23.6493 11.9988H4.35254C3.01448 11.8763 2.4887 10.1271 3.61259 9.29817L13.111 2.29277ZM14.0011 8.9986C14.8294 8.9986 15.5009 8.32698 15.5009 7.49849C15.5009 6.66999 14.8294 5.99837 14.0011 5.99837C13.1727 5.99837 12.5012 6.66999 12.5012 7.49849C12.5012 8.32698 13.1727 8.9986 14.0011 8.9986ZM19.5006 12.9989H22.0004V17.9993H19.5006V12.9989ZM13.0011 22.7497C13.0011 21.7247 13.3257 20.7756 13.8776 19.9995H6.25169C4.45691 19.9995 3.00195 21.4547 3.00195 23.2497V23.7498C3.00195 24.164 3.33771 24.4998 3.75189 24.4998H13.3339C13.1192 23.9582 13.0011 23.3678 13.0011 22.7497ZM15.001 18.8759C15.7135 18.3691 16.5718 18.054 17.5008 18.0058V12.9989H15.001V18.8759ZM13.0011 18.9994V12.9989H10.5013V18.9994H13.0011ZM8.50151 12.9989V18.9994H6.00171V12.9989H8.50151ZM17.7508 20.4995C16.5082 20.4995 15.5009 21.507 15.5009 22.7497C15.5009 23.9924 16.5082 24.9999 17.7508 24.9999H18.2507C18.6649 24.9999 19.0007 25.3357 19.0007 25.7499C19.0007 26.1642 18.6649 26.5 18.2507 26.5H17.7508C15.6799 26.5 14.0011 24.8209 14.0011 22.7497C14.0011 20.6785 15.6799 18.9994 17.7508 18.9994H18.2507C18.6649 18.9994 19.0007 19.3352 19.0007 19.7495C19.0007 20.1637 18.6649 20.4995 18.2507 20.4995H17.7508ZM17.0008 22.7497C17.0008 22.3355 17.3366 21.9996 17.7508 21.9996H23.2503C23.6645 21.9996 24.0002 22.3355 24.0002 22.7497C24.0002 23.1639 23.6645 23.4998 23.2503 23.4998H17.7508C17.3366 23.4998 17.0008 23.1639 17.0008 22.7497ZM23.2503 24.9999C24.4928 24.9999 25.5001 23.9924 25.5001 22.7497C25.5001 21.507 24.4928 20.4995 23.2503 20.4995H22.7503C22.3362 20.4995 22.0004 20.1637 22.0004 19.7495C22.0004 19.3352 22.3362 18.9994 22.7503 18.9994H23.2503C25.3212 18.9994 27 20.6785 27 22.7497C27 24.8209 25.3212 26.5 23.2503 26.5H22.7503C22.3362 26.5 22.0004 26.1642 22.0004 25.7499C22.0004 25.3357 22.3362 24.9999 22.7503 24.9999H23.2503Z" fill="#212121"/>
</svg>

<svg xmlns="http://www.w3.org/2000/svg" width="28" height="28"><path d="M13.111 2.293a1.5 1.5 0 0 1 1.78 0l9.498 7.005c1.124.83.598 2.578-.74 2.7H4.353c-1.339-.122-1.864-1.87-.74-2.7l9.498-7.005Zm.89 6.706a1.5 1.5 0 1 0 0-3 1.5 1.5 0 0 0 0 3Zm5.5 4H22v5h-2.5v-5Zm-6.5 9.75a4.73 4.73 0 0 1 .877-2.75H6.252a3.25 3.25 0 0 0-3.25 3.25v.5c0 .415.336.75.75.75h9.582A4.738 4.738 0 0 1 13 22.75Zm2-3.873a4.725 4.725 0 0 1 2.5-.87v-5.007H15v5.877Zm-2 .123v-6h-2.5v6h2.5Zm-4.5-6v6h-2.5v-6h2.5Zm9.25 7.5a2.25 2.25 0 0 0 0 4.5h.5a.75.75 0 0 1 0 1.501h-.5a3.75 3.75 0 0 1 0-7.5h.5a.75.75 0 0 1 0 1.5h-.5ZM17 22.75a.75.75 0 0 1 .75-.75h5.5a.75.75 0 0 1 0 1.5h-5.5a.75.75 0 0 1-.75-.75ZM23.25 25a2.25 2.25 0 0 0 0-4.5h-.5a.75.75 0 0 1 0-1.5h.5a3.75 3.75 0 0 1 0 7.501h-.5a.75.75 0 0 1 0-1.5h.5Z"/></svg>
